assets/img/icons/ok.svg

<svg width="112" height="112" viewBox="0 0 112 112" fill="none" xmlns="http://www.w3.org/2000/svg">
<path d="M56 0C25.1207 0 0 25.1207 0 56C0 86.8793 25.1207 112 56 112C86.8793 112 112 86.8793 112 56C112 25.1207 86.8793 0 56 0ZM55.5753 71.9553C53.7693 73.7613 51.394 74.662 49.0093 74.662C46.6247 74.662 44.226 73.752 42.4013 71.932L29.4187 59.3507L35.9193 52.6447L48.9533 65.2773L76.062 38.6727L82.614 45.3227L55.5753 71.9553Z" fill="#BF1F1F"/>
</svg>

<svg width="112" height="112" fill="none" xmlns="http://www.w3.org/2000/svg"><path d="M56 0C25.12 0 0 25.12 0 56s25.12 56 56 56 56-25.12 56-56S86.88 0 56 0Zm-.425 71.955a9.247 9.247 0 0 1-6.566 2.707 9.34 9.34 0 0 1-6.608-2.73L29.42 59.351l6.5-6.706 13.034 12.632 27.109-26.604 6.552 6.65-27.039 26.632Z" fill="#BF1F1F"/></svg>
